X: 12921
T: Fiddle Player, The
R: reel
M: 4/4
K: Dmajor
E2F2|:A4d2e2|f6ef|g2f2e2d2|B8-|-B2z2A2d2|B4A2F2|E8-|-E2z2D2E2|
F4d2c2|d6ef|g4B2{c}BA|B4z2d2|e6f2|g6e2|c4ABA2|1 F8-|-F2z2E2F2:|2 F8-|-F2z2f3a||
a8-|-a2z2f3a|b8-|-b2z2f3a|a8-|-a2z2f2fe|d8-|-d2z2c2A2|
B8-|-B8|z8|z6d2|e6f2|g6e2|c4ABA2|F8-|-F2z2||

